svgs/gallery_go.svg

<?xml version="1.0" encoding="UTF-8" standalone="no"?><svg xmlns:android="http://schemas.android.com/apk/res/android" height="192" width="192" xmlns="http://www.w3.org/2000/svg">
  <path d="M170,160C173.314,160 176,157.314 176,154C176,150.686 173.314,148 170,148V160ZM22,154L16,154C16,155.591 16.632,157.117 17.757,158.243C18.883,159.368 20.409,160 22,160V154ZM22,86V80C18.686,80 16,82.686 16,86L22,86ZM176,38C176,34.686 173.314,32 170,32C166.686,32 164,34.686 164,38H176ZM164,130C164,133.314 166.686,136 170,136C173.314,136 176,133.314 176,130H164ZM22,38L22,32C18.686,32 16,34.686 16,38L22,38ZM146,44C149.314,44 152,41.314 152,38C152,34.686 149.314,32 146,32L146,44ZM16,62C16,65.314 18.686,68 22,68C25.314,68 28,65.314 28,62L16,62ZM170,148H22V160H170V148ZM28,154L28,86L16,86L16,154L28,154ZM164,38V130H176V38H164ZM22,44L146,44L146,32L22,32L22,44ZM16,38L16,62L28,62L28,38L16,38ZM22,92C56.242,92 84,119.758 84,154H96C96,113.131 62.869,80 22,80V92Z" fill="#000000"/>
  <path d="M132,76m-14,0a14,14 0,1 1,28 0a14,14 0,1 1,-28 0" fill="#000000" fill-opacity="0.0" stroke="#000000" stroke-width="12"/>
</svg>

<svg width="192" height="192" viewBox="0 0 192 192" fill="none" xmlns="http://www.w3.org/2000/svg"><path d="M170 160a6 6 0 1 0 0-12v12Zm-148-6h-6a6.002 6.002 0 0 0 6 6v-6Zm0-68v-6a6 6 0 0 0-6 6h6Zm154-48a6 6 0 1 0-12 0h12Zm-12 92a6 6 0 1 0 12 0h-12ZM22 38v-6a6 6 0 0 0-6 6h6Zm124 6a6 6 0 1 0 0-12v12ZM16 62a6 6 0 1 0 12 0H16Zm154 86H22v12h148v-12Zm-142 6V86H16v68h12ZM164 38v92h12V38h-12ZM22 44h124V32H22v12Zm-6-6v24h12V38H16Zm6 54c34.242 0 62 27.758 62 62h12c0-40.869-33.13-74-74-74v12Z" fill="#000"/><circle cx="132" cy="76" r="14" stroke="#000" stroke-width="12"/></svg>
